X: 11322
T: The MILLER OF MANSFIELD
Q: "Sprightly."
%R: jig
B: W. Hamilton "Universal Tune-Book" Vol. 1 Glasgow 1844 p.132 #2
S: http://imslp.org/wiki/Hamilton's_Universal_Tune-Book_(Various)
Z: 2016 John Chambers <jc:trillian.mit.edu>
M: 6/8
L: 1/8
K: Bb
% - - - - - - - - - - - - - - - - - - - - - - - - -
F |\
B>cB d>cB | fdB c2F | B>cB d>cB | fdB c2A/B/ |\
cAB cAB | cAB c2f/=e/ | f=ed cBA | BGc F2 :|\
F |\
A>Bc cAF |
cde d2d | gfe dcB | cAB G2G |\
=BdG cec | AFA B2B/c/ | dcB fdB | fdB F2B/A/ |\
BAG Fed | cBA B2 |]
% - - - - - - - - - - - - - - - - - - - - - - - - -

%%sep 1 1 500
%%sep 1 1 500

